pix_core/t/award.svg

<!DOCTYPE svg PUBLIC "-//W3C//DTD SVG 1.1//EN" "http://www.w3.org/Graphics/SVG/1.1/DTD/svg11.dtd" [
	<!ENTITY ns_flows "http://ns.adobe.com/Flows/1.0/">
]><svg xmlns="http://www.w3.org/2000/svg" width="12" height="12" viewBox="0 0 12 12" preserveAspectRatio="xMinYMid meet" overflow="visible"><path d="M8.5 6.7c2.5-1.5 4-3.6 3.3-4.9-.4-.7-1.5-1-2.8-.8 0 0 0-.1 0-.2C9 .5 9 .3 9 0c0 0-1 .6-3 .5S3 0 3 0c0 .3 0 .5 0 .8 0 .1 0 .2 0 .3C1.7.9.6 1.1.2 1.9c-.7 1.2.8 3.4 3.3 4.8.3.2.7.4 1 .5.4.8.7 1.4.8 1.9.1.2-.1.6-.3.9H4l-2 2h8l-2-2H6.9c-.2-.3-.5-.7-.4-.9.2-.5.5-1.1.8-1.8.4-.1.8-.3 1.2-.6zm-7-4.1c.1-.3.8-.3 1.6 0 .1.9.4 1.8.6 2.6-1.6-1.1-2.4-2-2.2-2.6zm2.6 3.7zm6.4-3.7c.2.6-.7 1.6-2.3 2.6.3-.8.5-1.7.7-2.6.8-.3 1.5-.3 1.6 0zM7.8 6.3z" fill="#7575E0"/></svg>

<?xml version="1.0" encoding="utf-8"?>
<!-- Generator: Adobe Illustrator 15.1.0, SVG Export Plug-In  -->
<!DOCTYPE svg PUBLIC "-//W3C//DTD SVG 1.1//EN" "http://www.w3.org/Graphics/SVG/1.1/DTD/svg11.dtd" [
	<!ENTITY ns_flows "http://ns.adobe.com/Flows/1.0/">
]>
<svg version="1.1"
	 xmlns="http://www.w3.org/2000/svg" xmlns:xlink="http://www.w3.org/1999/xlink" xmlns:a="http://ns.adobe.com/AdobeSVGViewerExtensions/3.0/"
	 x="0px" y="0px" width="12px" height="12px" viewBox="0 0 12 12" style="overflow:visible;enable-background:new 0 0 12 12;"
	 xml:space="preserve" preserveAspectRatio="xMinYMid meet">
<defs>
</defs>
<path style="fill:#999999;" d="M8.5,6.7c2.5-1.5,4-3.6,3.3-4.9c-0.4-0.7-1.5-1-2.8-0.8c0,0,0,0,0,0C9,1,9,0.9,9,0.8C9,0.5,9,0.3,9,0
	c0,0-1,0.6-3,0.5S3,0,3,0c0,0.3,0,0.5,0,0.8C3,0.9,3,1,3,1.1c-1.3-0.2-2.4,0-2.8,0.8C-0.5,3.1,1,5.3,3.5,6.7c0.3,0.2,0.7,0.4,1,0.5
	C4.9,8,5.2,8.6,5.3,9.1C5.4,9.3,5.2,9.7,5,10H4l-2,2h8l-2-2H6.9C6.7,9.7,6.4,9.3,6.5,9.1C6.7,8.6,7,8,7.3,7.3c0,0,0,0,0,0
	C7.7,7.2,8.1,7,8.5,6.7z M1.5,2.6c0.1-0.3,0.8-0.3,1.6,0c0.1,0.9,0.4,1.8,0.6,2.6c0,0,0,0,0,0C2.1,4.1,1.3,3.2,1.5,2.6z M4.1,6.3
	L4.1,6.3L4.1,6.3z M10.5,2.6c0.2,0.6-0.7,1.6-2.3,2.6c0.3-0.8,0.5-1.7,0.7-2.6C9.7,2.3,10.4,2.3,10.5,2.6z M7.8,6.3
	C7.8,6.3,7.8,6.3,7.8,6.3C7.8,6.3,7.8,6.3,7.8,6.3z"/>
</svg>
